svg/media/camera_rotate_fill.svg

<?xml version="1.0" encoding="UTF-8"?>
<svg width="24px" height="24px" viewBox="0 0 24 24" version="1.1" xmlns="http://www.w3.org/2000/svg" xmlns:xlink="http://www.w3.org/1999/xlink">
    <title>camera_rotate_fill</title>
    <g id="Icon" stroke="none" stroke-width="1" fill="none" fill-rule="evenodd">
        <g id="Media" transform="translate(-288.000000, -240.000000)">
            <g id="camera_rotate_fill" transform="translate(288.000000, 240.000000)">
                <path d="M24,0 L24,24 L0,24 L0,0 L24,0 Z M12.5934901,23.257841 L12.5819402,23.2595131 L12.5108777,23.2950439 L12.4918791,23.2987469 L12.4918791,23.2987469 L12.4767152,23.2950439 L12.4056548,23.2595131 C12.3958229,23.2563662 12.3870493,23.2590235 12.3821421,23.2649074 L12.3780323,23.275831 L12.360941,23.7031097 L12.3658947,23.7234994 L12.3769048,23.7357139 L12.4804777,23.8096931 L12.4953491,23.8136134 L12.4953491,23.8136134 L12.5071152,23.8096931 L12.6106902,23.7357139 L12.6232938,23.7196733 L12.6232938,23.7196733 L12.6266527,23.7031097 L12.609561,23.275831 C12.6075724,23.2657013 12.6010112,23.2592993 12.5934901,23.257841 L12.5934901,23.257841 Z M12.8583906,23.1452862 L12.8445485,23.1473072 L12.6598443,23.2396597 L12.6498822,23.2499052 L12.6498822,23.2499052 L12.6471943,23.2611114 L12.6650943,23.6906389 L12.6699349,23.7034178 L12.6699349,23.7034178 L12.678386,23.7104931 L12.8793402,23.8032389 C12.8914285,23.8068999 12.9022333,23.8029875 12.9078286,23.7952264 L12.9118235,23.7811639 L12.8776777,23.1665331 C12.8752882,23.1545897 12.8674102,23.1470016 12.8583906,23.1452862 L12.8583906,23.1452862 Z M12.1430473,23.1473072 C12.1332178,23.1423925 12.1221763,23.1452606 12.1156365,23.1525954 L12.1099173,23.1665331 L12.0757714,23.7811639 C12.0751323,23.7926639 12.0828099,23.8018602 12.0926481,23.8045676 L12.108256,23.8032389 L12.3092106,23.7104931 L12.3186497,23.7024347 L12.3186497,23.7024347 L12.3225043,23.6906389 L12.340401,23.2611114 L12.337245,23.2485176 L12.337245,23.2485176 L12.3277531,23.2396597 L12.1430473,23.1473072 Z" id="MingCute" fill-rule="nonzero"></path>
                <path d="M14.5858,3 C15.1162,3 15.6249,3.21071 16,3.58579 L17.4142,5 L20,5 C21.1046,5 22,5.89543 22,7 L22,19 C22,20.1046 21.1046,21 20,21 L4,21 C2.89543,21 2,20.1046 2,19 L2,7 C2,5.89543 2.89543,5 4,5 L6.58579,5 L8,3.58579 C8.37507,3.21071 8.88378,3 9.41421,3 L14.5858,3 Z M8.65628,12.5001 C8.21808,12.4951 7.82769,12.776 7.6932,13.1931 L7.04826,15.1931 C6.87876,15.7187 7.16746,16.2822 7.69309,16.4517 C8.21788,16.621 8.78044,16.3335 8.95092,15.8094 C9.75235,16.5484 10.823,17 12,17 C13.6381,17 15.0707,16.1241 15.8565,14.8199 C16.1416,14.3469 15.9892,13.7323 15.5161,13.4473 C15.0431,13.1622 14.4285,13.3146 14.1435,13.7877 C13.7044,14.5163 12.9082,15 12,15 C10.869,15 9.91094,14.2481 9.60339,13.2147 C9.47839,12.7947 9.09448,12.505 8.65628,12.5001 Z M12,8 C10.5772,8 9.30828,8.66144 8.48528,9.68968 C8.36098,9.84497 8.24671,10.0088 8.14348,10.1801 C7.85844,10.6531 8.01085,11.2677 8.48389,11.5527 C8.95694,11.8378 9.57149,11.6854 9.85652,11.2123 C9.91388,11.1171 9.97745,11.026 10.0467,10.9394 C10.5065,10.365 11.2103,10 12,10 C13.131,10 14.0891,10.7519 14.3966,11.7852 C14.5216,12.2053 14.9055,12.495 15.3437,12.4999 C15.7420636,12.5044455 16.1009231,12.2727099 16.2639299,11.9171652 L16.3068,11.8069 L16.9517,9.80691 C17.1212,9.28128 16.8325,8.71776 16.3069,8.54826 C15.7821,8.37903 15.2196,8.66654 15.0491,9.19057 C14.2477,8.45161 13.177,8 12,8 Z" id="形状" fill="#09244B"></path>
            </g>
        </g>
    </g>
</svg>

<svg xmlns="http://www.w3.org/2000/svg" width="24" height="24"><g fill="none" fill-rule="evenodd"><path d="M24 0v24H0V0h24ZM12.593 23.258l-.011.002-.071.035-.02.004-.014-.004-.071-.035c-.01-.004-.019-.001-.024.005l-.004.01-.017.428.005.02.01.013.104.074.015.004.012-.004.104-.074.012-.016.004-.017-.017-.427c-.002-.01-.009-.017-.017-.018Zm.265-.113-.013.002-.185.093-.01.01-.003.011.018.43.005.012.008.007.201.093c.012.004.023 0 .029-.008l.004-.014-.034-.614c-.003-.012-.01-.02-.02-.022Zm-.715.002a.023.023 0 0 0-.027.006l-.006.014-.034.614c0 .012.007.02.017.024l.015-.002.201-.093.01-.008.004-.011.017-.43-.003-.012-.01-.01-.184-.092Z"/><path fill="#09244B" d="M14.586 3A2 2 0 0 1 16 3.586L17.414 5H20a2 2 0 0 1 2 2v12a2 2 0 0 1-2 2H4a2 2 0 0 1-2-2V7a2 2 0 0 1 2-2h2.586L8 3.586A2 2 0 0 1 9.414 3h5.172Zm-5.93 9.5a1 1 0 0 0-.963.693l-.645 2a1 1 0 0 0 1.903.616 4.498 4.498 0 0 0 6.906-.99 1 1 0 1 0-1.713-1.031 2.502 2.502 0 0 1-4.54-.573 1 1 0 0 0-.948-.715ZM12 8a4.493 4.493 0 0 0-3.857 2.18 1 1 0 1 0 1.714 1.032A2.494 2.494 0 0 1 12 10c1.131 0 2.09.752 2.397 1.785a1 1 0 0 0 1.867.132l.043-.11.645-2a1 1 0 0 0-1.903-.616A4.483 4.483 0 0 0 12 8Z"/></g></svg>
